X: 8
T: ROND DE LOUDEAC 2
M: 4/4
L: 1/8
Q:1/4=160
K:G 
|e3/2 z/2 de cBA3/2 z/2 |e3/2 z/2 de c3/2 z/2 c3/2 z/2 |e3/2 z/2 de cBA3
/2 z/2 |e3/2 z/2 de c3/2 z/2 c3/2 z/2 |
A3/2 z/2 cB cde3/2 z/2 |A3/2 z/2 cB AGA3/2 z/2 |A3/2 z/2 cB cde3/2 z/2 |
A3/2 z/2 cB AGA3/2 z/2 |
BBGG AAB3/2 z/2 |BBGG AAB3/2 z/2 |BBGG AAB3/2 z/2 |BBGG AAB3/2 z/2 |
BBBA Bcd3/2 z/2 |BBBA GFE3/2 z/2 |
|:EGB3/2 z/2 BBB3/2 z/2 |BcBA GFGE|EGB3/2 z/2 BBB3/2 z/2 |BcBA GFE3/2 z/
2:|
